X: 1
T: Polska fr\aan \"Alvdalen
T: efter Evert W. \AAhs
O: Sweden
M: 3/4
L: 1/16
%%slurgraces 1
K: Ddor
|:{AB}A3(^c d3)e {g}f3a | (g2b2) a7 (g \
|     e3)(g f>gfe) d3^c |1,3 d2f2 e2T^c2 A4 :|2,4 ^c4 d8 :|
|: {A}d3(f a3)(g e2)^c2 | (e2g2) (e2f2) d4- \
|     d3(f a3)(g e2)^c2 | (e2g2) (e2f2) d4- \
|    d3(^c A3)c e3c | B2{cB}^G2 [A8A8] :|
